other/coronavirus.svg

<?xml version="1.0" encoding="UTF-8" standalone="no"?>
<svg
   viewBox="0 0 48 48"
   version="1.1"
   id="svg8"
   xmlns="http://www.w3.org/2000/svg"
   xmlns:svg="http://www.w3.org/2000/svg">
  <defs
     id="defs4">
    <style
       id="style2">.a{fill:none;stroke:#fff;stroke-linecap:round;stroke-linejoin:round;}.b{fill:#fff}</style>
  </defs>
  <circle
     class="a"
     cx="24"
     cy="24"
     id="circle861"
     r="2" />
  <circle
     class="a"
     cx="20.308386"
     cy="17.562653"
     id="circle863"
     r="1" />
  <circle
     class="a"
     cx="31.545074"
     cy="22.744385"
     id="circle865"
     r="1" />
  <circle
     class="a"
     cx="16.509089"
     cy="27.209726"
     id="circle867"
     r="1" />
  <circle
     class="a"
     cx="30.136639"
     cy="30.392307"
     id="circle869"
     r="1" />
  <circle
     class="b"
     cx="26.057726"
     cy="14.35129"
     id="circle871"
     r="0.75" />
  <circle
     class="b"
     cx="28.129881"
     cy="19.432125"
     id="circle1404"
     r="0.75" />
  <circle
     class="b"
     cx="14.187347"
     cy="20.712353"
     id="circle1754"
     r="0.75" />
  <circle
     class="b"
     cx="21.697657"
     cy="31.345549"
     id="circle1756"
     r="0.75" />
  <circle
     class="a"
     id="path855"
     cx="24"
     cy="24.000002"
     r="13" />
  <path
     class="a"
     d="M 19.025115,11.989566 16.882088,6.8158407"
     id="path992" />
  <path
     id="path1700"
     class="a"
     d="M 18.19409,4.757042 A 1.4,2 67.5 0 1 16.882088,6.8158402 1.4,2 67.5 0 1 14.498572,6.2877758 1.4,2 67.5 0 1 15.810575,4.228978 1.4,2 67.5 0 1 18.19409,4.757042 Z" />
  <path
     class="a"
     d="M 14.807612,14.807612 13.393399,13.393398"
     id="path1786" />
  <path
     class="a"
     d="M 34.606601,34.606602 33.192389,33.192388"
     id="path1792" />
  <path
     class="a"
     d="M 11,24 9.0000004,24"
     id="path1794" />
  <path
     class="a"
     d="M 39,24.000001 37.000001,24"
     id="path1800" />
  <path
     class="a"
     d="m 14.807612,33.192389 -1.414213,1.414213"
     id="path1802" />
  <path
     class="a"
     d="m 34.606603,13.3934 -1.414214,1.414212"
     id="path1808" />
  <path
     class="a"
     d="M 31.117912,41.184159 28.974885,36.010434"
     id="path2552" />
  <path
     id="ellipse2554"
     class="a"
     d="m 33.501428,41.712224 a 1.4,2 67.5 0 1 -1.312003,2.058798 1.4,2 67.5 0 1 -2.383515,-0.528064 1.4,2 67.5 0 1 1.312002,-2.058799 1.4,2 67.5 0 1 2.383516,0.528065 z" />
  <path
     class="a"
     d="M 11.989566,19.025116 6.8158407,16.882088"
     id="path2556" />
  <path
     class="a"
     d="M 41.184159,31.117912 36.010434,28.974884"
     id="path2560" />
  <path
     class="a"
     d="M 11.989566,28.974885 6.8158404,31.117912"
     id="path2564" />
  <path
     class="a"
     d="m 41.184159,16.882088 -5.173726,2.143027"
     id="path2568" />
  <path
     class="a"
     d="M 19.025115,36.010434 16.882088,41.18416"
     id="path2572" />
  <path
     class="a"
     d="M 31.117911,6.8158408 28.974883,11.989567"
     id="path2576" />
  <path
     class="a"
     d="m 24.000001,37.000002 0,2"
     id="path2580" />
  <path
     id="ellipse2582"
     class="a"
     d="M 25.5,8 A 1.5,1 0 0 1 24,9 1.5,1 0 0 1 22.5,8 1.5,1 0 0 1 24,7 1.5,1 0 0 1 25.5,8 Z" />
  <path
     id="ellipse2584"
     class="a"
     d="M 25.5,40 A 1.5,1 0 0 1 24,41 1.5,1 0 0 1 22.5,40 1.5,1 0 0 1 24,39 1.5,1 0 0 1 25.5,40 Z" />
  <path
     class="a"
     d="m 24.000002,9.0000022 -10e-7,1.9999988"
     id="path2586" />
  <path
     id="path937"
     class="a"
     d="m 13.746952,11.625631 a 1,1.5 45 0 1 -0.353554,1.767767 1,1.5 45 0 1 -1.767767,0.353554 1,1.5 45 0 1 0.353554,-1.767767 1,1.5 45 0 1 1.767767,-0.353554 z" />
  <path
     id="path939"
     class="a"
     d="m 36.374369,34.253048 a 1,1.5 45 0 1 -0.353554,1.767767 1,1.5 45 0 1 -1.767767,0.353554 1,1.5 45 0 1 0.353554,-1.767767 1,1.5 45 0 1 1.767767,-0.353554 z" />
  <path
     id="path941"
     class="a"
     d="M 8,22.5 A 1.5,1 90 0 1 8.9999996,24 1.5,1 90 0 1 8,25.5 1.5,1 90 0 1 7.0000004,24 1.5,1 90 0 1 8,22.5 Z" />
  <path
     id="path943"
     class="a"
     d="M 40,22.5 A 1.5,1 90 0 1 41,24 1.5,1 90 0 1 40,25.5 1.5,1 90 0 1 39,24 1.5,1 90 0 1 40,22.5 Z" />
  <path
     id="path945"
     class="a"
     d="m 11.625631,34.253048 a 1.5,1 45 0 1 1.767767,0.353554 1.5,1 45 0 1 0.353554,1.767767 1.5,1 45 0 1 -1.767767,-0.353554 1.5,1 45 0 1 -0.353554,-1.767767 z" />
  <path
     id="path947"
     class="a"
     d="m 34.253048,11.625631 a 1.5,1 45 0 1 1.767767,0.353554 1.5,1 45 0 1 0.353554,1.767767 1.5,1 45 0 1 -1.767767,-0.353554 1.5,1 45 0 1 -0.353554,-1.767767 z" />
  <path
     id="path949"
     class="a"
     d="M 6.2877756,14.498572 A 1.4,2 22.5 0 1 6.8158402,16.882088 1.4,2 22.5 0 1 4.757042,18.19409 1.4,2 22.5 0 1 4.2289783,15.810574 1.4,2 22.5 0 1 6.2877756,14.498572 Z" />
  <path
     id="path951"
     class="a"
     d="m 43.242958,29.80591 a 1.4,2 22.5 0 1 0.528064,2.383516 1.4,2 22.5 0 1 -2.058798,1.312002 1.4,2 22.5 0 1 -0.528065,-2.383516 1.4,2 22.5 0 1 2.058799,-1.312002 z" />
  <path
     id="path953"
     class="a"
     d="M 4.7570418,29.80591 A 2,1.4 67.5 0 1 6.8158402,31.117912 2,1.4 67.5 0 1 6.2877755,33.501428 2,1.4 67.5 0 1 4.2289778,32.189425 2,1.4 67.5 0 1 4.7570418,29.80591 Z" />
  <path
     id="path955"
     class="a"
     d="m 41.712224,14.498572 a 2,1.4 67.5 0 1 2.058798,1.312003 2,1.4 67.5 0 1 -0.528064,2.383516 2,1.4 67.5 0 1 -2.058799,-1.312002 2,1.4 67.5 0 1 0.528065,-2.383517 z" />
  <path
     id="path957"
     class="a"
     d="m 14.498572,41.712225 a 2,1.4 22.5 0 1 2.383516,-0.528065 2,1.4 22.5 0 1 1.312002,2.058798 2,1.4 22.5 0 1 -2.383516,0.528064 2,1.4 22.5 0 1 -1.312002,-2.058797 z" />
  <path
     id="path959"
     class="a"
     d="M 29.80591,4.7570422 A 2,1.4 22.5 0 1 32.189426,4.2289784 2,1.4 22.5 0 1 33.501429,6.2877763 2,1.4 22.5 0 1 31.117912,6.8158415 2,1.4 22.5 0 1 29.80591,4.7570422 Z" />
</svg>

<svg xmlns="http://www.w3.org/2000/svg" viewBox="0 0 48 48"><defs><style>.a{fill:none;stroke:#fff;stroke-linecap:round;stroke-linejoin:round;}.b{fill:#fff;}</style></defs><circle class="a" cx="24" cy="24" r="2"/><circle class="a" cx="20.3084" cy="17.5627" r="1"/><circle class="a" cx="31.5451" cy="22.7444" r="1"/><circle class="a" cx="16.5091" cy="27.2097" r="1"/><circle class="a" cx="30.1366" cy="30.3923" r="1"/><circle class="b" cx="26.0577" cy="14.3513" r="0.75"/><circle class="b" cx="28.1299" cy="19.4321" r="0.75"/><circle class="b" cx="14.1873" cy="20.7124" r="0.75"/><circle class="b" cx="21.6977" cy="31.3455" r="0.75"/><circle class="a" cx="24" cy="24" r="13"/><path class="a" d="M19.0251,11.99l-2.143-5.1738"/><path class="a" d="M18.1941,4.757c.2959.7144-.2915,1.6361-1.312,2.0588h0c-1.0205.4227-2.0876.1863-2.3835-.528s.2915-1.6361,1.312-2.0588S17.8982,4.0427,18.1941,4.757Z"/><path class="a" d="M14.8076,14.8076l-1.4142-1.4142"/><path class="a" d="M34.6066,34.6066l-1.4142-1.4142"/><path class="a" d="M11,24H9"/><path class="a" d="M39,24H37"/><path class="a" d="M14.8076,33.1924l-1.4142,1.4142"/><path class="a" d="M34.6066,13.3934l-1.4142,1.4142"/><path class="a" d="M31.1179,41.1842,28.9749,36.01"/><path class="a" d="M33.5014,41.7122c.2959.7144-.2915,1.6361-1.312,2.0588h0c-1.02.4227-2.0876.1863-2.3835-.528s.2915-1.6361,1.312-2.0588h0c1.02-.4227,2.0876-.1863,2.3835.528Z"/><path class="a" d="M11.99,19.0251l-5.1738-2.143"/><path class="a" d="M41.1842,31.1179,36.01,28.9749"/><path class="a" d="M11.99,28.9749l-5.1738,2.143"/><path class="a" d="M41.1842,16.8821,36.01,19.0251"/><path class="a" d="M19.0251,36.01l-2.143,5.1738"/><path class="a" d="M31.1179,6.8158,28.9749,11.99"/><path class="a" d="M24,37v2"/><path class="a" d="M25.5,8c0,.5523-.6716,1-1.5,1s-1.5-.4477-1.5-1,.6716-1,1.5-1S25.5,7.4477,25.5,8Z"/><path class="a" d="M25.5,40c0,.5523-.6716,1-1.5,1s-1.5-.4477-1.5-1,.6716-1,1.5-1S25.5,39.4477,25.5,40Z"/><path class="a" d="M24,9v2"/><path class="a" d="M13.747,11.6256c.39.3906.2322,1.182-.3536,1.7678s-1.3772.7441-1.7678.3536-.2322-1.182.3536-1.7678S13.3564,11.2351,13.747,11.6256Z"/><path class="a" d="M36.3744,34.253c.39.3906.2322,1.182-.3536,1.7678s-1.3772.7441-1.7677.3536-.2323-1.182.3535-1.7678h0c.5858-.5858,1.3772-.7441,1.7678-.3536Z"/><path class="a" d="M8,22.5c.5523,0,1,.6716,1,1.5s-.4477,1.5-1,1.5S7,24.8284,7,24,7.4477,22.5,8,22.5Z"/><path class="a" d="M40,22.5c.5523,0,1,.6716,1,1.5s-.4477,1.5-1,1.5-1-.6716-1-1.5S39.4477,22.5,40,22.5Z"/><path class="a" d="M11.6256,34.253c.3906-.3905,1.182-.2322,1.7678.3536s.7441,1.3772.3536,1.7678-1.182.2322-1.7678-.3536-.7441-1.3772-.3536-1.7678Z"/><path class="a" d="M34.253,11.6256c.3906-.3905,1.182-.2322,1.7678.3536s.7441,1.3772.3536,1.7678-1.182.2322-1.7678-.3536h0C34.0208,12.8076,33.8625,12.0162,34.253,11.6256Z"/><path class="a" d="M6.2878,14.4986c.7143.2959.9507,1.363.528,2.3835S5.4714,18.49,4.757,18.1941h0c-.7143-.2959-.9507-1.363-.528-2.3835h0C4.6517,14.79,5.5734,14.2027,6.2878,14.4986Z"/><path class="a" d="M43.243,29.8059c.7143.2959.9507,1.363.528,2.3835h0c-.4227,1.02-1.3444,1.6079-2.0588,1.312h0c-.7143-.2959-.9507-1.363-.528-2.3835h0c.4227-1.02,1.3444-1.6079,2.0588-1.312Z"/><path class="a" d="M4.757,29.8059c.7144-.2959,1.6361.2915,2.0588,1.312h0c.4227,1.02.1863,2.0876-.528,2.3835S4.6517,33.21,4.229,32.1894s-.1863-2.0876.528-2.3835Z"/><path class="a" d="M41.7122,14.4986c.7144-.2959,1.6361.2915,2.0588,1.312h0c.4227,1.02.1863,2.0876-.528,2.3835h0c-.7144.2959-1.6361-.2915-2.0588-1.312h0c-.4227-1.0205-.1863-2.0876.528-2.3835Z"/><path class="a" d="M14.4986,41.7122c.2959-.7143,1.363-.9507,2.3835-.528s1.6079,1.3444,1.312,2.0588h0c-.2959.7143-1.363.9507-2.3835.528h0C14.79,43.3483,14.2027,42.4266,14.4986,41.7122Z"/><path class="a" d="M29.8059,4.757c.2959-.7143,1.363-.9507,2.3835-.528h0c1.02.4227,1.6079,1.3444,1.312,2.0588h0c-.2959.7143-1.363.9507-2.3835.528h0c-1.02-.4227-1.6079-1.3444-1.312-2.0588Z"/></svg>
